X:133
T: AUF GOTTES WELT ISTS SCHOEN
N: F0254
O: Europa, Mitteleuropa, Deutschland
R: Jugend - Lied, Belehrung, religioes
M: 2/4
L: 1/8
K: A
e | cABG | A2z
A | cAcA | eee2 |
BBB2 | ddd
e | cABG | A2z

@@@ Tune index: 5564
